config/includes.chroot/usr/share/icons/Tela-circle/scalable/apps/input-mouse.svg

<svg width="64" height="64" version="1" xmlns="http://www.w3.org/2000/svg">
 <circle cx="32" cy="32" r="27" fill="#f9f9f9" stroke-width="3.7796" style="paint-order:stroke fill markers"/>
 <g transform="matrix(.66667 0 0 .66667 10.667 10.667)">
  <path d="m32 4c-0.024 0-0.05 4e-3 -0.074 4e-3h-8e-3c-8.972 0.056-17.918 9.354-17.918 16.332v23.07c0 9.482 6.75 16.594 18 16.594 11.25 2e-3 18-7.108 18-16.59v-22.438c0-7.252-8.988-16.906-18-16.964z" fill="#4f4f4f"/>
  <path d="m32 4-0.073 3e-3h-8e-3c-8.972 0.056-17.919 9.354-17.919 16.332v11.665h36v-11.028c0-7.252-8.988-16.906-18-16.964z" opacity=".1"/>
  <path d="m32 4-0.073 3e-3h-8e-3c-8.972 0.056-17.919 9.354-17.919 16.332v11.665h18v-27.992z" opacity=".1"/>
  <path d="m32 11c1.653 0 3 1.249 3 2.787v7.429c0 1.536-1.347 2.784-3 2.784s-3-1.248-3-2.786v-7.43c0-1.536 1.347-2.784 3-2.784" fill="#1dd0d0"/>
  <circle cx="32" cy="55" r="1" fill="#1dd0d0" style="paint-order:markers stroke fill"/>
 </g>
</svg>

<svg xmlns="http://www.w3.org/2000/svg" width="64" height="64" version="1"><circle cx="32" cy="32" r="27" fill="#ececec" style="paint-order:stroke fill markers"/><g transform="translate(7.111 7.111) scale(.77778)"><path fill="#4f4f4f" d="M32 4c-.024 0-.05.004-.074.004h-.008C22.946 4.06 14 13.358 14 20.336v23.07C14 52.888 20.75 60 32 60c11.25.002 18-7.108 18-16.59V20.972c0-7.252-8.988-16.906-18-16.964z"/><path d="m32 4-.073.003h-.008C22.947 4.059 14 13.357 14 20.335V32h36V20.972c0-7.252-8.988-16.906-18-16.964z" opacity=".1"/><path d="m32 4-.073.003h-.008C22.947 4.059 14 13.357 14 20.335V32h18V4.008z" opacity=".1"/><path fill="#1dd0d0" d="M32 11c1.653 0 3 1.249 3 2.787v7.429C35 22.752 33.653 24 32 24s-3-1.248-3-2.786v-7.43C29 12.248 30.347 11 32 11"/><circle cx="32" cy="55" r="1" fill="#1dd0d0" style="paint-order:markers stroke fill"/></g></svg>
